X:1
T:Mostar, 86.86.88
T:Mostar, 86.86.88
T:Samuel Alman, 1880
T:Public Domain Courtesy of the Cyber Hymnal™
C:Samuel Alman, 1880
Z:Public Domain
Z:Courtesy of the Cyber Hymnal™
%%score ( 1 2 ) ( 3 4 )
L:1/8
Q:1/4=107
M:4/4
K:G
V:1 treble 
V:2 treble 
V:3 bass 
V:4 bass 
V:1
 [B,D]2 | [DB]2 [DB]2 [DB]3 [DG] | (AG) ([DF][CE]) [B,D]3 D | [CE]2 [DG]2 (FG) (cB) | [DA]6 D2 | %5
 [DB]2 [DB]2 [DB]3 [DG] | (AG) ([DF][CE]) [B,D]3 D | [CE]2 [Ec]2 (BA) (GF) | [DG]6 ([DF][EG]) | %9
 [FA]2 [GB]2 [FA]2 (GA) | [GB]2 [Gc]2 [GB]2 (Bc) | [Gd]2 [Ge]2 [Gd]3 G | %12
 [GB][DA] (GF) !fermata![DG]2 |] %13
V:2
 x2 | x8 | E2 x4 D x | x4 D2 D2 | x6 D2 | x8 | E2 x4 D x | x4 D2 D2 | x8 | x6 G2 | x6 G2 | x7 G | %12
 x2 D2 x2 |] %13
V:3
 [G,,G,]2 | [G,,G,]2 [G,,G,]2 [G,,G,]3 [B,,G,] | [C,G,]2 [C,G,]2 [G,,G,]3 [B,,G,] | %3
 [C,G,]2 [B,,G,]2 (A,B,) [F,A,] x | [D,F,]6 [D,F,]2 | G,2 G,2 G,3 [G,B,] | %6
 [C,C]2 [C,G,]2 [G,,G,]3 [B,,G,] | [C,G,]2 [C,G,]2 (G,C) (B,A,) | [G,,B,]6 [D,A,]2 | %9
 [D,D]2 [D,D]2 [D,D]2 (B,C) | [G,D]2 [G,E]2 [G,D]2 (G,A,) | [G,B,]2 [G,C]2 [G,B,]3 [G,B,] | %12
 (DC) (B,A,) !fermata![G,,B,]2 |] %13
V:4
 x2 | x8 | x8 | x4 D,2 G, x | x8 | G,2 G,2 G,3 x | x8 | x4 D,2 D,2 | x8 | x6 G,2 | x8 | x8 | %12
 D,2 D,2 x2 |] %13

